X:268
T:Reel 268
M:4/4
K:Emin
L:1/8
gf|edBA GABc|dGBG FAAd|edBA GABa||edBd e2:||2efgf e2|d2|d2gd Bdgd|eefg efge|d2gf edfe|degf e2ef|d2gd g2eg|defg afga|bagf efef|gefd e2|
